X: 3040
T: Mrs DOUGLAS MONCRIEFF
Q:"Reel."
R: Reel.
%R:reel
B: James Kerr "Merry Melodies" v.3 p.7 #40
Z: 2016 John Chambers <jc:trillian.mit.edu>
M: C
L: 1/8
K: G
c |\
   BGdG BGGB | cEAG FDDc |\
[1 BGdG BGGB | EcAF G3 :|\
[2 BGdB gdec | BGAF G3 |]
|: c |\
   (Bcd)g ecgc | BGdG FDDc |\
[1 (Bcd)g efge | dBcA G/G/G G :|\
[2  Bdgb  ceag | fdef g/g/g g |]

%%sep 1 1 500
%%sep 1 1 500

